src/assets/icons/weeks,fancy,43.svg

<svg width="48" height="48" viewBox="0 0 48 48" fill="none" xmlns="http://www.w3.org/2000/svg">
<rect opacity="0.2" x="4" y="6" width="40" height="40" rx="4" fill="black"/>
<path d="M6.62553 37.4205H16.3997V41H20.5162V37.4205H23.0417V33.9702H20.5162V20.6364H15.127L6.62553 34.0298V37.4205ZM16.4792 33.9702H10.9608V33.8111L16.3201 25.3295H16.4792V33.9702ZM33.4373 41.2784C38.0112 41.2784 41.2825 38.7628 41.2725 35.2827C41.2825 32.7472 39.6717 30.9375 36.6788 30.5597V30.4006C38.9558 29.9929 40.5268 28.3821 40.5169 26.0952C40.5268 22.8835 37.7129 20.358 33.497 20.358C29.3208 20.358 26.1788 22.804 26.1191 26.3239H30.2456C30.2953 24.7727 31.7172 23.7685 33.4771 23.7685C35.2172 23.7685 36.3805 24.8224 36.3706 26.3537C36.3805 27.9545 35.0183 29.0384 33.0595 29.0384H31.1603V32.2003H33.0595C35.3663 32.2003 36.8081 33.3537 36.7981 34.9943C36.8081 36.6151 35.416 37.7287 33.4473 37.7287C31.5481 37.7287 30.1262 36.7344 30.0467 35.2429H25.7115C25.7811 38.8026 28.9629 41.2784 33.4373 41.2784Z" fill="black"/>
<g opacity="0.4">
<path d="M10 4C10 2.89543 10.8954 2 12 2C13.1046 2 14 2.89543 14 4V8C14 9.10457 13.1046 10 12 10C10.8954 10 10 9.10457 10 8V4Z" fill="black"/>
<path d="M34 4C34 2.89543 34.8954 2 36 2C37.1046 2 38 2.89543 38 4V8C38 9.10457 37.1046 10 36 10C34.8954 10 34 9.10457 34 8V4Z" fill="black"/>
</g>
<path fill-rule="evenodd" clip-rule="evenodd" d="M10 6.00869C7.52043 6.04456 6.11466 6.22849 5.17157 7.17157C4 8.34315 4 10.2288 4 14V16H44V14C44 10.2288 44 8.34315 42.8284 7.17157C41.8853 6.22849 40.4796 6.04456 38 6.00869V8C38 9.10457 37.1046 10 36 10C34.8954 10 34 9.10457 34 8V6H14V8C14 9.10457 13.1046 10 12 10C10.8954 10 10 9.10457 10 8V6.00869Z" fill="black"/>
</svg>

<svg xmlns="http://www.w3.org/2000/svg" width="48" height="48" fill="none" viewBox="0 0 48 48">
  <rect width="40" height="40" x="4" y="6" fill="#000" opacity=".2" rx="4"/>
  <path fill="#000" d="M6.626 37.42H16.4V41h4.116v-3.58h2.526v-3.45h-2.526V20.636h-5.389L6.626 34.03v3.39zm9.853-3.45h-5.518v-.159l5.36-8.482h.158v8.641zm16.958 7.308c4.574 0 7.846-2.515 7.836-5.995.01-2.536-1.601-4.346-4.594-4.723v-.16c2.277-.407 3.848-2.018 3.838-4.305.01-3.211-2.804-5.737-7.02-5.737-4.176 0-7.318 2.446-7.378 5.966h4.127c.05-1.551 1.471-2.556 3.231-2.556 1.74 0 2.904 1.054 2.894 2.586.01 1.6-1.353 2.684-3.312 2.684H31.16V32.2h1.9c2.306 0 3.748 1.154 3.738 2.794.01 1.621-1.382 2.735-3.35 2.735-1.9 0-3.322-.995-3.401-2.486h-4.335c.07 3.56 3.25 6.035 7.725 6.035z"/>
  <g opacity=".4">
    <path fill="#000" d="M10 4a2 2 0 114 0v4a2 2 0 11-4 0V4zM34 4a2 2 0 114 0v4a2 2 0 11-4 0V4z"/>
  </g>
  <path fill="#000" fill-rule="evenodd" d="M10 6.009c-2.48.036-3.885.22-4.828 1.163C4 8.343 4 10.229 4 14v2h40v-2c0-3.771 0-5.657-1.172-6.828-.943-.944-2.348-1.127-4.828-1.163V8a2 2 0 11-4 0V6H14v2a2 2 0 11-4 0V6.009z" clip-rule="evenodd"/>
</svg>
